X:1
T:Silence And Fun
T:Silence And Fun
T:JAZZ CHARACTERISTIC
T:GEORGE FAIRMAN
T:Copyright 1922 by Jack Mills Inc.
T:Copyright 1922 by Jack Mills Inc.
T:Copyright 1922 by Jack Mills Inc.
T:Copyright 1922 by Jack Mills Inc.
C:GEORGE FAIRMAN
Z:Copyright 1922 by Jack Mills Inc.
%%score { ( 1 2 ) | ( 3 4 ) }
L:1/8
Q:1/4=180
M:4/4
K:C
V:1 treble nm="Piano" snm="Pno."
V:2 treble 
V:3 bass 
V:4 bass 
V:1
"^Moderato""^INTRO" !>!a^ga^d ea (3!>!cd^d | !>!e^deB ce (3A^AB | !>!cBc^G !>!AcFA | %3
 [^G,B,E]2 z2 z4 |: !>![Aa]4 !>![Aa]4 | (3!>!CDC (3!>!B,CB, !>!A,2 z2 | x6 (3Ace | %7
 (3aac' (3a'!8va(!c''e'' a''2!8va)! (3a^ab | !>!c'ba!>!c'- c'bab | !>!c'ba!>!c'- c'b !>!a2 | %10
 (3(efe (3ded (3cdc (3BcB | (3!>!ABA (3GAG (3FGF E>C) | !>![Aa]4 !>![Aa]4 | %13
 (3!>!CDC (3!>!B,CB, !>!A,2 z2 | x6 (3Ace | (3ac'e' (3a'!8va(!c''e'' a''2!8va)! (3a^ab | %16
 !>!c'ba!>!c'- c'bab | !>!c'ba!>!c'- c'b !>!a2 | (3efe (3ded (3cdc (3BcB ||1 [CEA]2 z2 z4 :|2 %20
 [CEA]2 z2 !>![B,DFG]4 |: (3(cd^d (3ef^f g>)ce>g | !>![Ac^f]2 z2 z4 | (3(Bc^c (3d^de f>)GB>f | %24
 !>![Gce]2 z2 z2 (3!>!ded | c z (3!>!ded c z (3!>!ded | c z (3ded c>de>c | %27
 (3(!>!ded A2) (3(!>!ded A2) | B>dA>d G2 z2 | (3(cd^d (3ef^f g>)ce>g | %30
 (3^fgf (c2 (3(!>!c')a^f (3^dcA) | (3(Bc^c (3d^de f>)GB>f | [ce]2 z2 z2 (3cdc | %33
 B2 (3(B,E^G (3Be^g) [Be^gb]2- | [Be^gb]2 !>![Aca]>e !>![^G^A^ce^g]2 !>![^F=A^d^f]2 | %35
 e2 (3efe ^d>ef>^f | [Bg]2 (3fgf (3efe d2 | (3(cd^d (3ef^f g>)ce>g | !>![Ac^f]2 z2 z4 | %39
 (3(Bc^c (3d^de f>)GB>f | !>![Gce]2 z2 z2 (3!>!ded | c z (3!>!ded c z (3!>!ded | c z (3ded c>de>c | %43
 (3(!>!ded A2) (3(!>!ded A2) | B>dA>d G2 z2 | c>^cd>^d (3ef^f (3g^ga | _b>ab>^f g>ed>_d | %47
 (3cd^d e>c =d>ed>c | (3(c'a^f (3_ecA (3^F_EC !>!A,>_A,) | !>!G,2 (3G,CE (3Gce !>![Gceg]2- | %50
 !>![Gceg]2{/c} !>![Ff]2{/c} !>![^Fce]2{/G} !>![FGd]2 |1 [EGc]2 (3(GAG (3^FG^G (3A^AB | %52
 [EGc]2) z2 z4 :|2 [EGc]2 (3GAG (3^FG^G (3A^AB | [EGc]2 z2 e2 (3e^f^g || !>!a^ga^d ea (3!>!cd^d | %56
 !>!e^deB ce (3A^AB | !>!cBc^G !>!AcFA | [^G,B,E]2 z2 z4 |: !>![Aa]4 !>![Aa]4 | %60
 (3!>!CDC (3!>!B,CB, !>!A,2 z2 | x6 (3Ace | (3ac'e' (3a'!8va(!c''e'' a''2!8va)! (3a^ab | %63
 !>!c'ba!>!c'- c'bab | !>!c'ba!>!c'- c'b !>!a2 | (3(efe (3ded (3cdc (3BcB | %66
 (3!>!ABA (3GAG (3FGF E>C) | !>![Aa]4 !>![Aa]4 | (3!>!CDC (3!>!B,CB, !>!A,2 z2 | x6 (3Ace | %70
 (3ac'e' (3a'!8va(!c''e'' a''2!8va)! (3a^ab | !>!c'ba!>!c'- c'bab | !>!c'ba!>!c'- c'b !>!a2 | %73
 (3efe (3ded (3cdc (3BcB |1 [CEA]2 z2 !>![Acea]2 z2 :|2 [CEA]2 z2 !>![Acea]2 z2 || %76
 (3^g^g'g (3aa'a (3^d^d'd (3ee'e | (3BbB (3cc'c (3^G^gG (3AaA | (3^D^dD (3EeE (3B,BB, (3CcC | %79
 (3^G,^GG, (3A,AA, x4 | x8 | z8 | x4 (3EAc (3eac' | !>!e'2 !>![DE^GBe]2 !>![Acea]2 z2 |] %84
V:2
 !>!A6 !>!C2 | !>!E6 x2 | x8 | x8 |: z2 [ce]2 z2 [ce]2 | x8 | x8 | x8/3!8va(! x10/3!8va)! x2 | x8 | %9
 x8 | x8 | x8 | z2 [ce]2 z2 [ce]2 | x8 | x8 | x8/3!8va(! x10/3!8va)! x2 | x8 | x8 | x8 ||1 x8 :|2 %20
 x8 |: x8 | x8 | x8 | x6 [CF_A]2 | [EG] z [CF_A]2 [EG] z [CFA]2 | [EG] z [CF_A]2 [EG]4 | x8 | %28
 F2 F2 F2 x2 | x8 | x2 [_EA]6 | x8 | x8 | x8 | x8 | [E^GB]2 z2 z4 | [DF]2 A2 G2 [FB]2 | x8 | x8 | %39
 x8 | x6 [CF_A]2 | [EG] z [CF_A]2 [EG] z [CFA]2 | [EG] z [CF_A]2 [EG]4 | x8 | F2 F2 F2 x2 | x8 | %46
 x8 | x8 | x8 | x8 | x8 |1 x8 | x8 :|2 x8 | x4 [DE^G]4 || !>!A6 !>!C2 | !>!E6 x2 | x8 | x8 |: %59
 z2 [ce]2 z2 [ce]2 | x8 | x8 | x8/3!8va(! x10/3!8va)! x2 | x8 | x8 | x8 | x8 | z2 [ce]2 z2 [ce]2 | %68
 x8 | x8 | x8/3!8va(! x10/3!8va)! x2 | x8 | x8 | x8 |1 x8 :|2 x8 || !>!^g2 a2 !>!^d2 e2 | %77
 !>!B2 c2 !>!^G2 A2 | !>!^D2 E2 !>!B,2 C2 | !>!^G,2 A,2 x4 | x8 | x8 | x8 | x8 |] %84
V:3
 A,6 C,2 | E,6 [A,,A,]2 | [C,C]2 z2 z4 | !>![E,,E,]2 !>![D,,D,]2 !>![C,,C,]2 !>![B,,,B,,]2 |: %4
 !>![A,,E,A,]2 !>![A,,E,A,]2 !>![A,,E,A,]2 !>![A,,E,A,]2 | [C,,C,]2 [B,,,B,,]2 [A,,,A,,]2 z2 | %6
"^R.H." (3A,,,C,,E,, (3A,,C,E, (3A,CE x2 | x8 |!8va(! !>![FA_e]2 z2 z2 !>![FAe]2!8va)! | %9
!8va(! !>![EAce]2 z2 z2 (!>![EAce]2!8va)! |[I:staff -1] !>![D^GB]2)[I:staff +1] z2 z4 | z8 | %12
 !>![A,,E,A,]2 !>![A,,E,A,]2 !>![A,,E,A,]2 !>![A,,E,A,]2 | [C,,C,]2 [B,,,B,,]2 [A,,,A,,]2 z2 | %14
"^R.H." (3A,,,C,,E,, (3A,,C,E, (3A,CE x2 | x8 |!8va(! !>![FA_e]2 z2 z2 !>![FAe]2!8va)! | %17
 !>![E,A,CE]2 z2 z2 !>![E,A,CE]2 | %18
[I:staff -1] ([D^GB]2[I:staff +1] !>![E,,E,]2) !>![^F,,^F,]2 !>![^G,,^G,]2 ||1 %19
 [A,,A,]2 !>![E,,E,]2 !>![^F,,^F,]2 !>![^G,,^G,]2 :|2 [A,,A,]2 z2 !>![G,,G,]4 |: %21
 [C,C]2 [G,CE]2 [G,,G,]2 [G,CE]2 | [^F,A,_E]2 z2 z4 | [D,D]2 [G,B,D]2 [G,,G,]2 [G,B,D]2 | %24
 [C,C]2 z2 z2 x2 | x8 | x8 | [A,,A,]2 [D,^F,C]2 [D,,D,]2 [D,F,C]2 | %28
 [G,,G,]2 [A,,A,]2 [B,,B,]2 [G,,G,]2 | [C,C]2 [G,CE]2 [G,,G,]2 [G,CE]2 | !>![^F,,^F,]2 !>!C6 | %31
 [D,D]2 [G,B,D]2 [G,,G,]2 [G,B,D]2 | [C,C]2 z2 z2 [F,A,_E]2 | [E,^G,E]2 z2 z2 z (B,, | %34
 !>!B,2) [E,,E,]2 [^F,,^F,]2 [B,,,B,,]2 | [E,,E,]2 z2 [G,^A,^CE]4 | %36
 G,2 !arpeggio!G,2 !arpeggio!G,2 !arpeggio!G,2 | [C,C]2 [G,CE]2 [G,,G,]2 [G,CE]2 | %38
 [^F,A,_E]2 z2 z4 | [D,D]2 [G,B,D]2 [G,,G,]2 [G,B,D]2 | [C,C]2 z2 z2 x2 | x8 | x8 | %43
 [A,,A,]2 [D,^F,C]2 [D,,D,]2 [D,F,C]2 | [G,,G,]2 [A,,A,]2 [B,,B,]2 [G,,G,]2 | %45
 [C,C]2 [G,_B,E]2 [G,,G,]2 [G,_B,E]2 | [C,C]2 [G,_B,E]2 [G,,G,]2 [G,_B,E]2 | %47
 [F,,F,]2 [F,A,C]2 [C,,C,]2 [F,A,C]2 | [^F,A,_E]4- [F,A,E] z z2 | !>![G,,,G,,]8- | %50
 !>![G,,,G,,]2 !>![^G,,^G,]2 !>![A,,A,]2 !>![B,,B,]2 |1 [C,C]2 [G,,G,]2 [^F,,^F,]2 [=F,,=F,]2 | %52
 [E,,E,]2 [C,C]2 [B,,B,]2 [A,,A,]2 :|2 [C,C]2 [G,,G,]2 [D,,D,]2 [G,,G,]2 | [C,,E,]2 z2 z4 || %55
 A,6 C,2 | E,6 [A,,A,]2 | [C,C]2 z2 z4 | !>![E,,E,]2 !>![D,,D,]2 !>![C,,C,]2 !>![B,,,B,,]2 |: %59
 !>![A,,E,A,]2 !>![A,,E,A,]2 !>![A,,E,A,]2 !>![A,,E,A,]2 | [C,,C,]2 [B,,,B,,]2 [A,,,A,,]2 z2 | %61
"^R.H." (3A,,,C,,E,, (3A,,C,E, (3A,CE x2 | x8 |!8va(! !>![FA_e]2 z2 z2 !>![FAe]2!8va)! | %64
!8va(! !>![EAce]2 z2 z2 (!>![EAce]2!8va)! |[I:staff -1] !>![D^GB]2)[I:staff +1] z2 z4 | z8 | %67
 !>![A,,E,A,]2 !>![A,,E,A,]2 !>![A,,E,A,]2 !>![A,,E,A,]2 | [C,,C,]2 [B,,,B,,]2 [A,,,A,,]2 z2 | %69
"^R.H." (3A,,,C,,E,, (3A,,C,E, (3A,CE x2 | x8 |!8va(! !>![FA_e]2 z2 z2 !>![FAe]2!8va)! | %72
!8va(! !>![EAce]2 z2 z2 !>![EAce]2!8va)! | %73
[I:staff -1] ([D^GB]2[I:staff +1] !>![E,,E,]2) !>![^F,,^F,]2 !>![^G,,^G,]2 |1 %74
 [A,,A,]2 !>![E,,E,]2 !>![^F,,^F,]2 !>![^G,,^G,]2 :|2 [A,,A,]2 z2 [A,,,A,,]2 z2 || x8 | x8 | x8 | %79
 x2 x2 (3^D,^DD, (3E,EE, | (3B,,B,B,, (3C,CC, (3^G,,^G,G,, (3A,,A,A,, | %81
 (3^D,,^D,D,, (3E,,E,E,, (3B,,,B,,B,,, (3C,,C,C,, |"^R.H." z2 (3E,A,C z4 | %83
 z2 !>![E,,B,,E,]2 !>![A,,,A,,]2 z2 |] %84
V:4
 x8 | x8 | x8 | x8 |: x8 | x8 | x8 | x8 |!8va(! x8!8va)! |!8va(! x8!8va)! | x8 | x8 | x8 | x8 | %14
 x8 | x8 |!8va(! x8!8va)! | x8 | x8 ||1 x8 :|2 x8 |: x8 | x8 | x8 | x8 | x8 | x8 | x8 | x8 | x8 | %30
 x8 | x8 | x8 | x8 | x8 | x8 | x8 | x8 | x8 | x8 | x8 | x8 | x8 | x8 | x8 | x8 | x8 | x8 | x8 | %49
 x8 | x8 |1 x8 | x8 :|2 x8 | x8 || x8 | x8 | x8 | x8 |: x8 | x8 | x8 | x8 |!8va(! x8!8va)! | %64
!8va(! x8!8va)! | x8 | x8 | x8 | x8 | x8 | x8 |!8va(! x8!8va)! |!8va(! x8!8va)! | x8 |1 x8 :|2 %75
 x8 || x8 | x8 | x8 | x4 ^D,2 E,2 | B,,2 C,2 ^G,,2 A,,2 | ^D,,2 E,,2 B,,,2 C,,2 | A,,,2 z2 x4 | %83
 x8 |] %84

